X:1
T:Title
%%score { 1 | 2 }
L:1/8
Q:1/4=100
M:4/4
K:Bb
V:1 treble nm="Grand Piano"
V:2 bass 
V:1
 [Fd]>[Fd] [Fd]>[Ec] [DB]2 [DF]2 | [Fd]>[Fd] [Fd]>[Ec] [DB]4 | A>A A>B c2 F2 | %3
w: Lida~Shivers~Leech * * * * *|||
 [DB]>[CA] [DB]>[Ec] [Fd]4 | [Fd]>[Fd] [Fd]>[Ec] [DB]2 [DF]2 | %5
w: ||
[M:9/8] G>GG- G/[FA]/ [GB]2- [GB][GB]>[^Fc] |[M:4/4] d2 d2 c c3 | %7
w: ||
[M:7/8] [B,DB]-[B,DB]-[B,DB]- [B,DB]3 z |[M:1/8] F |[M:4/4] D2 F2 B2 F>F | G2 A2 B4 | %11
w: ||||
 d2 d2 c2 B>B |[M:7/8] A2 [=EG]2 F3 |[M:1/8] F |[M:4/4] D2 F2 B3 F | B2 [Ac]2 d3 F | %16
w: |||||
 G2 [Ge]2 [Gd]2 [Gc]>[Gc] | [FB]2 [EA]2 [DB]4 |] %18
w: ||
V:2
 [B,,B,]>[B,,B,] [B,,B,]>[B,,B,] [B,,B,]2 [B,,B,]2 | [B,,B,]>[B,,B,] [B,,B,]>[B,,B,] [B,,B,]4 | %2
 [F,CE]>[F,CE] [F,CE]>[F,B,D] [F,A,E]2 [F,A,E]2 | [B,,B,]>[B,,B,] [B,,B,]>[B,,B,] [B,,B,]4 | %4
 [B,,B,]>[B,,B,] [B,,B,]>[B,,B,] [B,,B,]2 [B,,B,]2 | %5
[M:9/8] [E,B,E]>[E,B,E][E,B,E]- [E,B,E]/[E,B,]/ [E,E]2- [E,E][E,B,]>[E,B,] | %6
[M:4/4] [F,B,F]2 [F,B,F]2 [F,A,E] [F,A,E]3 |[M:7/8] B,,-B,,-B,,- B,,3 z |[M:1/8] F, | %9
[M:4/4] D,2 F,2 B,2 F,>F, | G,2 A,2 B,4 | [B,F]2 [B,F]2 [A,CF]2 [G,DG]>[G,DG] | %12
[M:7/8] [CF]2[K:bass] [C,B,]2 [F,A,]3 |[M:1/8] F, |[M:4/4] D,2 F,2 B,3 F, | %15
 [B,DF]2 [F,F]2 [B,FB]3[K:bass] [B,D] | [E,B,E]2 [C,C]2 [D,=B,]2 [E,C]>[E,C] | %17
 [F,D]2 [F,C]2 [B,,B,]4 |] %18

